svg/24/logo-scuf.svg

<svg width="24" height="24" viewBox="0 0 24 24" fill="currentColor" xmlns="http://www.w3.org/2000/svg"><path d="M2.05431 21.9985L3.39616 17.0999C2.47927 15.5571 1.99702 13.795 2.00001 12.0004C1.99962 9.5283 2.91492 7.14366 4.56893 5.30645C6.22293 3.46924 8.49828 2.30962 10.9568 2.05127V4.15785C9.05642 4.41079 7.31289 5.34504 6.0495 6.787C4.7861 8.22896 4.08871 10.0806 4.08774 11.9977C4.08871 13.9148 4.7861 15.7664 6.0495 17.2084C7.31289 18.6503 9.05642 19.5846 10.9568 19.8375V21.9441C9.5559 21.7985 8.20224 21.3564 6.98524 20.6475L2.05431 21.9985Z"/><path d="M17.9479 17.211C16.6845 18.653 14.941 19.5873 13.0406 19.8402V21.9454C15.4994 21.6879 17.7753 20.5289 19.4298 18.692C21.0843 16.8551 22 14.4705 22 11.9984C22 9.52619 21.0843 7.14162 19.4298 5.30474C17.7753 3.46786 15.4994 2.30882 13.0406 2.05127V4.16051C14.941 4.41345 16.6845 5.3477 17.9479 6.78966C19.2113 8.23162 19.9081 10.0832 19.909 12.0004C19.9081 13.9175 19.2113 15.7691 17.9479 17.211Z"/><path d="M10.4457 16.687C10.7131 16.7704 10.9882 16.8278 11.2666 16.8585C11.5232 16.8851 11.7336 16.8984 11.8932 16.8978C12.3904 16.898 12.8858 16.8422 13.3705 16.7315C13.838 16.6313 14.284 16.4479 14.6868 16.1902C15.0774 15.9393 15.401 15.5969 15.6297 15.1928C15.8852 14.7194 16.0098 14.1864 15.9907 13.6488C16.0007 13.2707 15.9288 12.8948 15.7803 12.547C15.6482 12.2548 15.4553 11.9943 15.2141 11.7829C14.9745 11.5733 14.7043 11.4015 14.4128 11.2736C14.1138 11.1409 13.8072 11.0263 13.4945 10.9304C13.1794 10.842 12.8711 10.7602 12.5692 10.6864C12.2673 10.6126 11.9956 10.5328 11.7549 10.4497C11.5459 10.3811 11.3478 10.2835 11.1659 10.1598C11.0961 10.1141 11.0381 10.0528 10.9964 9.98057C10.9547 9.90837 10.9303 9.82739 10.9256 9.74416C10.9198 9.62805 10.9549 9.51355 11.0243 9.42032C11.0895 9.3362 11.1748 9.26988 11.2724 9.22748C11.3757 9.18302 11.4839 9.15217 11.5951 9.13572C11.6969 9.11911 11.8004 9.11022 11.9036 9.10912C12.0462 9.10923 12.1881 9.1271 12.3263 9.16232C12.4664 9.19675 12.5977 9.25993 12.7121 9.34784C12.8266 9.4235 12.9181 9.52874 12.9776 9.65239C13.0432 9.79188 13.0629 9.94851 13.0341 10.0999H15.6173C15.619 9.59911 15.5053 9.10466 15.2849 8.65496C15.0896 8.27793 14.8083 7.95201 14.4641 7.7034C14.1126 7.45674 13.7168 7.28018 13.2984 7.18341C12.847 7.07648 12.3844 7.02358 11.9205 7.02581C11.4712 7.02442 11.0238 7.08392 10.5906 7.20269C10.1767 7.31331 9.78853 7.50373 9.44766 7.76325C9.11367 8.0244 8.84111 8.35585 8.64958 8.73409C8.43577 9.17067 8.33085 9.65252 8.34373 10.1385C8.32755 10.5458 8.42231 10.9498 8.61776 11.3075C8.7952 11.6052 9.03396 11.8616 9.31844 12.0595C9.61689 12.2643 9.94346 12.4246 10.2879 12.5356C10.6497 12.654 11.0058 12.7651 11.3523 12.8714C11.7326 12.9865 12.0477 13.0836 12.2971 13.1667C12.4968 13.2315 12.6913 13.3113 12.8789 13.4054C12.9955 13.4595 13.0969 13.5406 13.1757 13.6421C13.2373 13.7339 13.2688 13.8429 13.2647 13.9533C13.2715 14.1041 13.2326 14.2534 13.153 14.3816C13.0794 14.4913 12.9809 14.5824 12.866 14.6475C12.7513 14.7144 12.6256 14.7595 12.4945 14.7805C12.3752 14.8012 12.2545 14.8126 12.1335 14.8145C11.8714 14.8134 11.6112 14.7684 11.364 14.6815C11.2377 14.6379 11.124 14.565 11.0315 14.4686C10.939 14.3723 10.8706 14.2554 10.8321 14.1276C10.7628 13.9279 10.7285 13.7178 10.7315 13.5065H8.00086C7.99021 13.9484 8.06585 14.3882 8.22359 14.8012C8.36024 15.1392 8.553 15.4515 8.79439 15.7248C9.01664 15.9721 9.28202 16.1775 9.57689 16.3312C9.85527 16.4758 10.1459 16.5948 10.4457 16.687Z"/></svg>

<svg xmlns="http://www.w3.org/2000/svg" width="24" height="24" fill="currentColor" viewBox="0 0 24 24">
  <path d="M2.054 21.998 3.396 17.1A9.949 9.949 0 0 1 2 12a10.003 10.003 0 0 1 8.957-9.949v2.107a7.912 7.912 0 0 0-6.87 7.84 7.914 7.914 0 0 0 6.87 7.84v2.106a9.93 9.93 0 0 1-3.972-1.296l-4.93 1.35Zm15.894-4.787a7.912 7.912 0 0 1-4.907 2.63v2.104a10 10 0 0 0 0-19.894v2.11A7.912 7.912 0 0 1 19.909 12a7.912 7.912 0 0 1-1.961 5.21Z"/>
  <path d="M10.446 16.687c.267.083.542.14.82.171.257.027.468.04.627.04.497 0 .993-.056 1.477-.166a3.99 3.99 0 0 0 1.317-.542c.39-.25.714-.593.943-.997.255-.474.38-1.007.36-1.544a2.63 2.63 0 0 0-.21-1.102 2.246 2.246 0 0 0-.566-.764c-.24-.21-.51-.381-.801-.51a8.166 8.166 0 0 0-.918-.343c-.316-.088-.624-.17-.926-.244a9.197 9.197 0 0 1-.814-.236 2.351 2.351 0 0 1-.59-.29.532.532 0 0 1-.24-.416.5.5 0 0 1 .1-.324.633.633 0 0 1 .247-.193c.104-.044.212-.075.323-.091a1.716 1.716 0 0 1 .731.027c.14.034.272.097.386.185a.73.73 0 0 1 .322.752h2.583c.002-.5-.112-.995-.332-1.445a2.714 2.714 0 0 0-.82-.952 3.34 3.34 0 0 0-1.167-.52 5.856 5.856 0 0 0-1.377-.157 4.972 4.972 0 0 0-1.33.177c-.414.11-.802.3-1.143.56a2.89 2.89 0 0 0-.798.971 3.012 3.012 0 0 0-.306 1.405c-.016.407.078.81.274 1.168.177.298.416.555.7.752.299.205.625.366.97.477.362.118.718.23 1.064.335.38.115.696.213.945.296.2.065.394.144.582.238a.804.804 0 0 1 .297.237c.061.092.093.2.089.311a.755.755 0 0 1-.112.429.85.85 0 0 1-.287.266c-.115.066-.24.111-.371.133-.12.02-.24.032-.361.034a2.35 2.35 0 0 1-.77-.133.84.84 0 0 1-.532-.554c-.07-.2-.104-.41-.1-.621H8a3.4 3.4 0 0 0 .223 1.294c.136.338.329.65.57.924a2.8 2.8 0 0 0 .783.606 5.2 5.2 0 0 0 .869.356Z"/>
</svg>
